X: 6
T: Wallop The Potlid
R: jig
M: 6/8
L: 1/8
K: Gmaj
A ||: BcB AGE | DGG DGG | BAB cBc | def gdc |B3 AGE | DGG DGG | B/c/dB cAF | AGG G2 A :||||: BAB cBc | dgg fdd | fef gfg | a2g fdB |dgg b2g | a2g fdc | B/c/dB cAF | AGG G2 A :|]


Tune 1454	Setting 14846

